X:1
T:Sacerdotes Domini
T:Joseph Hartmann Stuntz
T:Angelus Domini
T:CPDL   —   Creative Commons Attribution Non Commercial 3.0
T:CPDL   —   Creative Commons Attribution Non Commercial 3.0
T:CPDL   —   Creative Commons Attribution Non Commercial 3.0
T:CPDL   —   Creative Commons Attribution Non Commercial 3.0
T:CPDL   —   Creative Commons Attribution Non Commercial 3.0
T:CPDL   —   Creative Commons Attribution Non Commercial 3.0
C:Joseph Hartmann Stuntz
Z:CPDL   —   Creative Commons Attribution Non Commercial 3.0
%%score [ 1 2 3 4 ]
L:1/8
Q:1/4=96
M:3/4
K:Bb
V:1 treble nm="Sopran"
V:2 treble nm="Alt"
V:3 treble-8 nm="Tenor"
V:4 bass nm="Bass"
V:1
"^Ein Engel des Herrn" z6 | z6 | z2!p! c2 d2 | e3 e"^cresc." e2- | e2 e4- | e2 d3 d | !fermata!c6 | %7
w: ||An- *|* ge- lus|_ Do-|* * mi-|ni|
"^stieg vom Himmel herab" z6 | z6 | z2!f! B4 | f2 e2 d2 | c2 e4 | d4 c2- | c2 B2 G2 | !fermata!F6 | %15
w: ||de-|scen- * *|dit de|coe- *||lo|
"^und sprach zu den Frauen:" z4!p! F2- | F2 F2 ^F2 | G2 G2 A2 | B3 G B2- | B2 A2 G2- | G^F G3 G | %21
w: et|_ di- *|xit mu- *|* li- e-||* * * ri-|
 !fermata!^F6 |"^Der, den ihr sucht," z6 | z6 | z2!<(! A2 B2!<)! |!>(! d3 c!>)! B2 | z6 | z6 | %28
w: bus:|||Quem _|quae- ri- tis,|||
 z2 G2 =B2 |!>(! c3!>)! d !fermata!e2 |"^ist auferstanden," z6 | z2!f! (e2 f2) | g2 f4- | %33
w: quem _|quae- ri- tis,||sur- *|re- xit,|
 f2 Bd f2- | f6- | fe d2 z2 |"^so wie er es gesagt hat." d4 d2 | !>!e2 !>!d2 z2 | z2 !>!B2 !>!B2 | %39
w: _ sur- * re-||* * xit,|si- cut|di- xit,|si- cut|
 !>!d2 !>!c2 !fermata!z2 |"^Alleluja." z6 | z6 | z6 | z6 | z6 | z6 |!f! B6 | c3 d e2- | e2 d2 e2 | %49
w: di- xit.|||||||Al-|le- * lu-||
 c2 d2 c2 | BG/A/Bcde | f3 e d2 | e2 f2 g2 | f6- | f2 e4 | d6 | !>!d2 !>!d2 !>!e2 | d6 | %58
w: ja, al- le-|lu- * * * * * *||ja, al- le-|lu-||ja,|al- le- lu-|ja,|
 !>!d2 !>!d2 !>!e2 | d2 B2 d2 | fede f2- | f2 ed c2- | c2 B2 c2 | d2!>(! c2!>)! B2- | B2 AB c2 | %65
w: al- le- lu-|ja, al- le-|lu- * * * *|* * * ja,|_ al- le-|lu- * *||
 B6 | B2 B2 e2 | d2 B4- | B2 B2 e2- | e2 d2 B2 | !fermata!d6 |] %71
w: ja,|al- le- lu-|ja, al-|* le- *|* lu- *|ja!|
V:2
 z6 | z2!p! G4 | F6 | E3 E"^cresc." E2- | E2 EF G2 | F4 F2 | !fermata!F6 | z6 | z4!f! FE | %9
w: |An-||* ge- lus|_ Do- * *|* mi-|ni||de- *|
 DE F2 G2 | F2 GF F2- | F2 EF G2- | G3 FE=E | F_E D2 E2 | !fermata!D6 |!p! D2 D4 | E2 D3 C | %17
w: scen- * * *|* * * dit|_ de _ coe-|||lo|et di-||
 B,4 z2 | z2 z2 G2 | F3 _E D2- | DCB,C DE | !fermata!D6 | z6 | z6 | z2!<(! ^F2 G2!<)! | %25
w: xit|mu-|* li- e-|* * * * * ri-|bus:|||Quem _|
!>(! A3 A!>)! G2 | z2!<(! G2 _A2!<)! |!>(! _A3 G!>)! G2- | G2 z2 G2 | G3 G !fermata!G2 | z6 | %31
w: quae- ri- tis,|quem _|quae- ri- tis,|_ quem|quae- ri- tis,||
 z2!f! (G2 B2) | B2 B4- | B2 FB F2- | F6- | F2 F2 z2 | (G2 ^F2) G2 | !>!G2 !>!G2 z2 | %38
w: sur- *|re- xit,|_ sur- * re-||* xit,|si- * cut|di- xit,|
 z2 !>!G2 !>!G2 | !>!B2 !>!A2 !fermata!z2 | z6 | z6 | z6 |!f! F6 | G3 A B2- | B2 A2 B2 | G2 G2 F2 | %47
w: si- cut|di- xit.||||Al-|le- * lu-||ja, al- le-|
 EC/D/EFGA | B3 A G2 | A2 B2 A2 | G3 ^F G2 | =F6 | E2 B4 | A4 BA | G3 BAG | ^F D/=E/FGAB | %56
w: lu- * * * * * *||ja, al- le-|lu- * *||ja, al-|le- * *|lu- * * *|ja, al- * * * * *|
 A2 GB AG | ^F A2 GFG | ^F2 G2 G2 | =F2 D2 F2 | B2 F2 D2 | E3 F G2 | F4 G2 | F B2 AGF/=E/ | %64
w: * le- * lu- *|ja, _ _ _ _|al- le- lu-|ja, al- le-|lu- ja, al-|le- * lu-|ja, al-|le- * * * * *|
 F3 D_EF | D!<(! D/E/FG_A!<)!G | FE/D/ E2 G2 | F D/E/FG_AB | _AG/F/ G2 B2- | B4 F2 | !fermata!B6 |] %71
w: lu- * * *|ja, al- * * * * *|* * * le- lu-|ja, al- * * * * *|* * * le- lu-||ja!|
V:3
!p! B6- | B2 c2 B2- | B2 A2 B2 | G3"^cresc." G G2 | G2 A2 B2 | c2 B3 B | !fermata!A6 | %7
w: An-|||* ge- lus|Do- * *|* * mi-|ni|
 z2 z2!f! cB | A3 GFG/A/ | B4 B2- | BAGA B2- | BA G2 c2- | c2 =B2 c_B | A2 B4 | !fermata!B6 | %15
w: de- *|scen- * * * *|dit, de-|* * * * scen-|* * dit de|_ coe- * *||lo|
!p! B2 B4 | c2 B2 A2 | G2 B2 A2 | G2 B2 e2- | e d2 c2 B- | BAGA Bc | !fermata!A6 | %22
w: et di-||xit mu- *|* li- e-||* * * * * ri-|bus:|
 z2!<(! d2 e2!<)! |!>(! e3 d!>)! d2- | d2 z2 d2 |!>(! d3 d!>)! d2 | z6 | z6 | z2 =B2 d2 | %29
w: Quem _|quae- ri- tis,|_ quem|quae- ri- tis,|||quem _|
 c3 =B !fermata!c2 |!f! !>!E2 !>!G2 !>!c2 | e4 d2 | e2 d2 FB | d2 B2 cd | edcBAc | BA B2 z2 | %36
w: quae- ri- tis,|sur- * *|re- *|* xit, sur- *|re- xit, sur- *|re- * * * * *|* * xit,|
 (B2 A2) B2 | !>!c2 !>!B2 z2 | z2 !>!d2 !>!e2 | !>!f2 !>!f2 !fermata!z2 |!f! B6 | c3 d e2- | %42
w: si- * cut|di- xit,|si- cut|di- xit.|Al-|le- lu- *|
 e2 d2 e2 | c2 d2 c2 | BG/A/Bcde | f3 e d2 | e2 e2 d2 | c6 | B4 c2 | F2 f3 e | dB/c/dcBc | %51
w: |ja, al- le-|lu- * * * * * *||ja, al- le-|lu-||ja, al- le-|lu- * * * * * *|
 d2 c2 B2- | B2 d2 e2 | c4 dc | B3 dcB | A ^F/G/ABcd | c2 Bd cB | A ^F/G/ABcd | c2 B2 B2 | %59
w: * * ja,|_ al- le-|lu- * *||ja, al- * * * * *|* le- * lu- *|ja, al- * * * * *|* le- lu-|
 B2 F2 B2 | dc B2 _A2 | G3 =Bc_B | =A2 B4 | Bdfed_d | c=dcB A2 | B6 | B2 B2 B2 | B B/c/defg | %68
w: ja, al- le-|lu- * * *||ja, al-|le- * * * * *|lu- * * * *|ja,|al- le- lu-|ja, al- * * * * *|
 fe/d/ e2 g2- | g2 f2 d2 | !fermata!f6 |] %71
w: * * * le- lu-||ja!|
V:4
 z2!p! B,,2 D,2 | E,4 =E,2 | F,3 _E, D,2 | C,3"^cresc." C, C,2 | C,4 B,,2 | A,,2 B,,3 B,, | %6
w: An- *|||* ge- lus|Do- *|* * mi-|
 !fermata!F,6 |!f! F,2 F,3 G, | F,E,D,E,D,C, | B,,C, D,2 E,2 | D,2 E,C,B,,D, | F,2 C,D,E,F, | G,6 | %13
w: ni|de- scen- *||* * dit, de-|scen- * * * *|dit de _ _ _|coe-|
 F,2 G,2 E,2 | !fermata!B,,6 | z4!p! B,,2- | B,,A,, B,,2 D,2 | E,4 z2 | z2 G,2 E,2 | B,,2 F,2 G,2 | %20
w: |lo|et|_ _ di- *|xit|mu- li-|e- * *|
 D,2 E,2 D,C, | !fermata!D,6 | z6 | z6 | z2!<(! D,2 G,2!<)! |!>(! ^F,3 F,!>)! G,2 | z6 | z6 | %28
w: * * ri- *|bus:|||Quem _|quae- ri- tis,|||
 z2 G,2 F,2 | E,3 D, !fermata!C,2 |!f! !>!C,2 !>!E,2 !>!G,2 | C4 B,2 | E,2 B,,2 B,,D, | %33
w: quem _|quae- ri- tis,|sur- * *|re- *|* xit, sur- *|
 F,2 D,2 F,B, | CB,A,G,F,E, | D,C, B,,2 z2 | (G,2 D,2) G,2 | !>!C,2 !>!G,2 z2 | %38
w: re- xit, sur- *|re- * * * * *|* * xit,|si- * cut|di- xit,|
 z2 !>![G,B,]2 !>![E,B,]2 | !>![B,,B,]2 !>![F,,F,]2 !fermata!z2 | z2!f! G,2 F,2 | %41
w: si- cut|di- xit.|Al- le-|
 E,C,/D,/E,F,G,A, | B,3 A, G,2 | A,2 B,2 A,2 | G,6 | F,6 | z6 | z6 | z6 | F,6 | G,3 A, B,2- | %51
w: lu- * * * * * *||ja, al- le-|lu-|ja,||||al-|le- * lu-|
 B,2 A,2 B,2 | G,2 F,2 E,2- | E,2 F,E, D,2 | E,D, C,4 | D,6 | D,^F, G,2 C,2 | D, D,/=E,/^F,G,A,B, | %58
w: |ja, al- le-|* * * lu-||ja,|al- * le- lu-|ja, al- * * * * *|
 A,2 G,2 E,2 | B,,4 z2 | B,,6 | C,3 D, E,2- | E,2 D,2 E,2 |!>(! F,4 G,2!>)! | F,6 | %65
w: * le- lu-|ja,|al-|le- * lu-||||
 B,,!<(! B,,/C,/D,E,F,!<)!G, | _A,2 G,2 E,2 | B,,6 | B,2 G,2 E,2 | B,,6- | !fermata!B,,6 |] %71
w: ja, al- * * * * *|* le- lu-|ja,|al- le- lu-|ja!|_|

